icons/desktop/16/svg/shopping-16.svg

<svg width="16" height="16" viewBox="0 0 16 16" fill="none" xmlns="http://www.w3.org/2000/svg">
<g clip-path="url(#clip0_8069_32652)">
<path d="M5 6C5.55228 6 6 6.44772 6 7C6 7.55228 5.55228 8 5 8C4.44772 8 4 7.55228 4 7C4 6.44772 4.44772 6 5 6Z" fill="black"/>
<path fill-rule="evenodd" clip-rule="evenodd" d="M7.28809 3C7.75012 3.00002 8.19644 3.18272 8.52539 3.5127L13.1895 8.17676C14.1599 9.14733 14.2839 10.7023 13.4268 11.8008C12.926 12.4426 12.3366 13.1209 11.6455 13.8037C11.0153 14.4266 10.3904 14.9659 9.7959 15.4297C8.76677 16.2319 7.33846 16.1697 6.36621 15.3623L6.17773 15.1904L1.5127 10.5254C1.18542 10.1981 1.00002 9.75247 1 9.28809V4.75C1 3.78379 1.78379 3 2.75 3H7.28809ZM2.75 4.5C2.61221 4.5 2.5 4.61221 2.5 4.75V9.28809C2.50002 9.35364 2.52656 9.41816 2.57324 9.46484L7.2373 14.1289C7.65898 14.55 8.30494 14.6159 8.78125 14.3125L8.87402 14.2461C9.42536 13.816 10.0052 13.3152 10.5908 12.7363L11.0537 12.2627C11.4997 11.7905 11.8952 11.3251 12.2441 10.8779C12.6229 10.3925 12.5782 9.68674 12.1289 9.2373L7.46484 4.57324L7.46289 4.57227C7.41801 4.52715 7.35535 4.50002 7.28809 4.5H2.75Z" fill="black"/>
<path d="M8.90332 0C9.36405 8.66028e-05 9.81375 0.186974 10.1396 0.512695L14.7803 5.15234C15.0729 5.4453 15.073 5.91998 14.7803 6.21289C14.6343 6.35889 14.442 6.43262 14.25 6.43262C14.058 6.43262 13.8657 6.35989 13.7197 6.21289L9.08008 1.57324C9.03315 1.52632 8.96921 1.50008 8.90332 1.5H4.75C4.336 1.5 4 1.164 4 0.75C4 0.336 4.336 0 4.75 0H8.90332Z" fill="black"/>
</g>
<defs>
<clipPath id="clip0_8069_32652">
<rect width="16" height="16" fill="white"/>
</clipPath>
</defs>
</svg>

<!-- This Source Code Form is subject to the terms of the Mozilla Public
   - License, v. 2.0. If a copy of the MPL was not distributed with this
   - file, You can obtain one at http://mozilla.org/MPL/2.0/. -->
<svg xmlns="http://www.w3.org/2000/svg" width="16" height="16" fill="context-fill" fill-opacity="context-fill-opacity" viewBox="0 0 16 16">
    <g clip-path="url(#clip0_8069_32652)">
        <path d="M5 6a1 1 0 1 1 0 2 1 1 0 0 1 0-2" />
        <path fill-rule="evenodd" d="M7.288 3c.462 0 .908.183 1.237.513l4.665 4.664c.97.97 1.094 2.525.237 3.624a20.8 20.8 0 0 1-3.631 3.629c-1.03.802-2.458.74-3.43-.068l-.188-.172-4.665-4.665A1.75 1.75 0 0 1 1 9.288V4.75C1 3.784 1.784 3 2.75 3zM2.75 4.5a.25.25 0 0 0-.25.25v4.538c0 .066.027.13.073.177l4.664 4.664a1.246 1.246 0 0 0 1.544.184l.093-.067c.551-.43 1.131-.93 1.717-1.51l.463-.473c.446-.473.841-.938 1.19-1.385a1.243 1.243 0 0 0-.115-1.64L7.465 4.572h-.002a.25.25 0 0 0-.175-.073z" clip-rule="evenodd" />
        <path d="M8.903 0c.461 0 .91.187 1.237.513l4.64 4.64a.75.75 0 0 1-1.06 1.06l-4.64-4.64a.25.25 0 0 0-.177-.073H4.75a.75.75 0 0 1 0-1.5z" />
    </g>
</svg>
